X:1
T:Title
%%score { ( 1 3 ) | ( 2 4 ) }
L:1/8
M:4/4
K:Ab
V:1 treble nm="Grand Piano"
V:3 treble 
V:2 bass 
V:4 bass 
V:1
 z4 z2[Q:1/4=100] [A,C]>[B,D] | [CE]2 [DF]2 [CE]2 [EA]>B | c2 d2 c2 c>d | e2 e2 e2 d>c | %4
 z4 B2[K:bass] z2[K:treble] | [CE]2 [DF]2 [CE]2 [EA]>B | c2 d2 c2 c>d | %7
 z4 B2[K:bass][K:treble] z2 | [Ec]2 [DB]2 [CA]2 z2 | B2 B>B B e2 e | e2 z2 z4 | z4 B4 | %12
 [DB]2 [CA]>[A,C] [CE]3 [CE] | F2 F>F E E2 E | [DG]2 [DG]2 [CA]3 [EA] | [FB]<[Fd] c<A B2 G2 | %16
[M:3/4] [CA]6 |] %17
V:2
 z4 z2 [A,,E,]>[A,,E,] | [A,,A,]2 [A,,A,]2 [A,,A,]2 [C,A,]>[E,G,E] | %2
 [A,E]2 [A,F]2 [A,E]2 [A,E]>[A,B,E] | [A,CE]2 [A,CE]2 [A,CE]2 [G,B,E]>[A,E] | %4
 [E,G,E]2 [E,A,E]2 .[E,G,E]2 [C,E,A,]>[A,,G,] | [A,,A,]2 [A,,A,]2 [A,,A,]2 [C,A,]>[E,G,E] | %6
 [A,E]2 [A,E]2 [A,E]2 [A,E]>[A,B,E] | z2 .B,2 z4 | [E,A,]2 [E,G,]2 [A,,A,]2 z2 | %9
 [E,G,E]2 [E,G,E]>[E,G,E] [E,G,E] [E,G,E]2 [E,CE] | .[E,CE]2 [G,B,E]2 [A,E]4 | z4 D4 | %12
 [A,,E,]2 [A,,E,]>[A,,E,] [A,,A,]3 [A,,A,] | [D,A,D]2 [D,A,D]>[D,A,D] [C,A,] [C,A,]2 [C,A,] | %14
 [B,,E,]2 [B,,E,]2 [A,,E,]3 [C,A,] | [D,A,]<[D,A,] [E,A,E]<[E,CE] [E,DE]2 [E,B,D]2 | %16
[M:3/4] [A,,A,]6 |] %17
V:3
 x8 | x8 | x8 | x8 | B2 c2 z[K:bass] D, C>[K:treble][B,D] | x8 | x8 | %7
 e2 dc z[K:bass] D,[K:treble] [EA]>[FB] | x8 | x8 | z F, d2 c4 | c2 B>E z2 G,2 | x8 | x8 | x8 | %15
 x8 |[M:3/4] x6 |] %17
V:4
 x8 | x8 | x8 | x8 | x8 | x8 | x8 | [A,CE]2 [G,E]-[G,A,E] .[E,G,E]2 [C,A,]>[D,A,] | x8 | x8 | x8 | %11
 [E,A,E]2 [E,G,D]>[E,G,D] [E,G,]2 E,2 | x8 | x8 | x8 | x8 |[M:3/4] x6 |] %17

